X:1
T:The Angels Sang One Starry Night
T:The Angels Sang One Starry Night
T:James Henry Fillmore, Sr.
T:Eliza Edmunds Hewitt, 1898
T:Public Domain Courtesy of the Cyber Hymnal™
C:James Henry Fillmore, Sr.
Z:Public Domain
Z:Courtesy of the Cyber Hymnal™
%%score ( 1 2 ) ( 3 4 )
L:1/8
Q:1/4=103
M:6/8
K:G
V:1 treble 
V:2 treble 
V:3 bass 
V:4 bass 
V:1
 D | [B,D]2 [B,D] (DE)[CF] | [B,G]2 [DA] [DB]2 [Ec] | [DB]2 [CA] [CA]2 [DB] | %4
w: 1.~The|an- gels sang * one|star- ry night, Good|news for you, good|
w: 2.~Glad|mu- sic fell * from|harps of gold, Good|news for you, good|
w: 3.~He|loves us more * than|we can say, Good|news for you, good|
 [CA]2 [B,G] ([B,G][DF])[CE] | [B,D]2 [B,D] (DE)[CF] | [B,G]2 [DA] [DB]2 [Ec] | %7
w: news for me; * They|filled the sky * with|glo- ry bright, Good|
w: news for me; * The|sweet- est sto- * ry|ev- er told, Good|
w: news for me; * He|lives for us * this|Christ- mas day, Good|
 [DB]2 [CA] [B,G]2 [A,F] | [B,G]3- [B,G]2 z ||"^Refrain" .[FA]2 z [EA]2 z | .[^DB]2 z3 [FA] | %11
w: news for you and|me. *|||
w: news for you and|me. *|Hark! hark!|hark! Good|
w: news for you and|me. *|||
 [EG]2 [FA] [GB]2 [G^c] | [Fd]3- [Fd]2 [Dc] | [DB]2 [CA] ([B,G][DF])[CE] | %14
w: |||
w: news for you and|me; * For|Je- sus came * that|
w: |||
 [B,D]2 [G,B,] [B,D]2 [B,D] | [CE]2 [Ec] [DB]2 [CA] | [B,G]3- [B,G]2 |] %17
w: |||
w: star- ry night, Good|news for you and|me. *|
w: |||
V:2
 D | x3 C2 x | x6 | x6 | x6 | x3 C2 x | x6 | x6 | x6 || x6 | x6 | x6 | x6 | x6 | x6 | x6 | x5 |] %17
V:3
 D, | [G,,G,]2 [G,,G,] [D,F,]2 [D,A,] | [E,G,]2 [D,F,] G,2 [C,G,] | [D,G,]2 D, D,2 D, | %4
 [G,,D,]2 [G,,D,] [G,,D,]2 [G,,G,] | [G,,G,]2 [G,,G,] [D,F,]2 [D,A,] | [E,G,]2 [D,F,] G,2 [C,G,] | %7
 [D,G,]2 D, D,2 D, | [G,,D,]3- [G,,D,]2 z || [D,D]2 z [C,A,]2 z | [B,,F,]2 z3 [B,,B,] | %11
 [E,B,]2 [D,D] [G,D]2 [E,A,] | [D,A,]3- [D,A,]2 [D,A,] | G,2 G, G,2 G, | %14
 [G,,G,]2 [G,,D,] [G,,G,]2 [G,,G,] | [C,G,]2 [C,G,] [D,G,]2 [D,F,] | [G,,G,]3- [G,,G,]2 |] %17
V:4
 D, | x6 | x3 G,2 x | x2 D, D,2 D, | x6 | x6 | x3 G,2 x | x2 D, D,2 D, | x6 || x6 | x6 | x6 | x6 | %13
 G,2 G, G,2 G, | x6 | x6 | x5 |] %17

